X: 1
T: Hollow Poplar
R: reel
B: PC1 p.104
S: Fiddle Hell Online 2021-10-13 Portland Collection Jam handout
Z: 2022 John Chambers <jc:trillian.mit.edu>
M: C|
L: 1/8
K: G
%%continueall
"^A"|: Bc |\
"G"d4 d2Bc | d2B2 AGAB | "C"c4 c2AB | c2B2 AGEG |
"G"DEGA Bdef | g2f2 edBA | G2BG "D"AGF2 | "G"G6 :|
"^B"|: Bc |\
"G"d4 g4 | g2f2 e2d2 | "D"fa-a2 a2fg | a2f2 edef |
"G"gfef gfef | "C"g2f2 edBA | "G"G2BG "D"AGF2 | "G"G6 :|
